packages/foundations/assets/icons/functional/images/human/stroller_14.svg

<svg width="14" height="14" viewBox="0 0 14 14" fill="none" xmlns="http://www.w3.org/2000/svg">
<g clip-path="url(#clip0_185_1211)">
<path fill-rule="evenodd" clip-rule="evenodd" d="M4.92787 9.79867C5.70107 9.79867 6.32787 10.4255 6.32787 11.1987C6.32787 11.9719 5.70107 12.5987 4.92787 12.5987C4.15467 12.5987 3.52787 11.9719 3.52787 11.1987C3.52787 10.4255 4.15467 9.79867 4.92787 9.79867ZM9.12787 9.79867C9.90107 9.79867 10.5279 10.4255 10.5279 11.1987C10.5279 11.9719 9.90107 12.5987 9.12787 12.5987C8.35467 12.5987 7.72787 11.9719 7.72787 11.1987C7.72787 10.4255 8.35467 9.79867 9.12787 9.79867ZM8.39833 1.40567C10.4224 1.54044 11.9676 3.26814 11.8765 5.2946C11.8765 5.32824 11.8741 5.36132 11.8695 5.39368C11.8642 5.60037 11.8478 5.81017 11.8023 5.96343C11.7218 6.21411 11.1789 7.78617 11.0975 7.98392C10.8346 8.65036 10.1942 9.09114 9.47787 9.09867H4.42343C3.69435 9.09693 3.04351 8.64127 2.79243 7.95679L2.17514 5.8628C2.09172 5.64746 2.11987 5.40484 2.25038 5.21432C2.38089 5.02381 2.59696 4.90992 2.82789 4.90993L3.63569 4.90937L3.26856 4.35442C3.20351 4.25691 3.09397 4.19844 2.97675 4.19867H2.81969C2.43309 4.19867 2.11969 3.88527 2.11969 3.49867C2.11969 3.11207 2.43309 2.79866 2.81969 2.79866H2.97675C3.56381 2.7979 4.11199 3.09212 4.43581 3.58179L5.31569 4.90937H6.82469L7.64627 1.91579C7.73751 1.58402 8.05634 1.36776 8.39833 1.40567ZM10.1979 6.30862L3.87787 6.30915L4.23115 7.42663C4.27683 7.59519 4.40465 7.70987 4.54968 7.71238H9.57042C9.71809 7.70111 9.84569 7.58203 9.89372 7.41066C9.92414 7.31701 10.0615 6.81734 10.1979 6.30862ZM8.82358 2.91635L8.27569 4.90937L10.4563 4.9091C10.3176 3.63374 9.49108 3.12168 8.82358 2.91635Z" fill="#1A1C1F"/>
</g>
<defs>
<clipPath id="clip0_185_1211">
<rect width="14" height="14" fill="white"/>
</clipPath>
</defs>
</svg>

<svg xmlns="http://www.w3.org/2000/svg" width="14" height="14" fill="none"><g clip-path="url(#a)"><path fill="#1A1C1F" fill-rule="evenodd" d="M4.928 9.799a1.4 1.4 0 1 1 0 2.8 1.4 1.4 0 0 1 0-2.8m4.2 0a1.4 1.4 0 1 1 0 2.8 1.4 1.4 0 0 1 0-2.8m-.73-8.393a3.73 3.73 0 0 1 3.472 3.988 2.4 2.4 0 0 1-.068.57c-.08.25-.623 1.822-.704 2.02a1.76 1.76 0 0 1-1.62 1.115H4.423a1.74 1.74 0 0 1-1.63-1.142l-.618-2.094a.7.7 0 0 1 .653-.953h.808l-.367-.556a.35.35 0 0 0-.292-.155H2.82a.7.7 0 1 1 0-1.4h.157c.587-.001 1.135.293 1.459.783l.88 1.327h1.509l.821-2.993a.7.7 0 0 1 .752-.51m1.8 4.903h-6.32l.353 1.118c.046.168.174.283.319.285h5.02c.148-.01.276-.13.324-.301.03-.094.168-.594.304-1.102M8.824 2.916 8.276 4.91h2.18c-.138-1.275-.965-1.787-1.632-1.993" clip-rule="evenodd"/></g><defs><clipPath id="a"><path fill="#fff" d="M0 0h14v14H0z"/></clipPath></defs></svg>
